X:167
T:Sweet Maid of Mull, The
C:A C Beaton
S:Loose sheet from Ayr & Prestwick Strathspey & Reel Society
Z:Nigel Gatherer
M:6/8
L:1/8
K:A
e|A>Bc e2 a|a>gf e3|f<af f>ec|c>BA B2 e|A>Bc e2 a|a>gf e2 a|
A>ce f>ec|B3 A2:|g|a>ea a2 e|f<af e2 a|A>cf e>cA|c<ec B2 g|
a>ea a2 e|f<af e2 a|A>ce f>ec|B3 A2 g|a>ea a2 e|f<af e2 a|
A>cf e>cA|c<ec B2 e|A>Bc e2 a|a>gf e2 a|A>ce f>ec|B3 A2|]
e|A>Bc c<eA|d>ef e2 a|e>fe c>BA|c<ec B2 e|A>Bc c<eA|d>ef e2 a|
A>ce f>ec|B3 A2:|g|a>ea a>gf|f<af e2 a|A>cf e>cA|c<ec B2 g|
a>ea a>gf|f<af e2 a|A>ce f>ec|B3 A2 g|a>ea a>gf|f<af e2 a|
A>cf e>cA|c<ec B2 e|A.Bc e2 a|a>gf e2 a|A>ce f>ec|B3 A2|]
